copytrade/img/icomoon/settings.svg

<svg width="24" height="24" viewBox="0 0 24 24" fill="none" xmlns="http://www.w3.org/2000/svg">
<path fill-rule="evenodd" clip-rule="evenodd" d="M6 3C6.55228 3 7 3.44772 7 4V5C8.10457 5 9 5.89543 9 7V10C9 11.1046 8.10457 12 7 12V20C7 20.5523 6.55228 21 6 21C5.44772 21 5 20.5523 5 20V12C3.89543 12 3 11.1046 3 10V7C3 5.89543 3.89543 5 5 5V4C5 3.44772 5.44772 3 6 3ZM12 3C12.5523 3 13 3.44772 13 4V13C14.1046 13 15 13.8954 15 15V18C15 19.1046 14.1046 20 13 20C13 20.5523 12.5523 21 12 21C11.4477 21 11 20.5523 11 20C9.89543 20 9 19.1046 9 18V15C9 13.8954 9.89543 13 11 13V4C11 3.44772 11.4477 3 12 3ZM19 4C19 3.44772 18.5523 3 18 3C17.4477 3 17 3.44772 17 4C15.8954 4 15 4.89543 15 6V10C15 11.1046 15.8954 12 17 12V20C17 20.5523 17.4477 21 18 21C18.5523 21 19 20.5523 19 20V12C20.1046 12 21 11.1046 21 10V6C21 4.89543 20.1046 4 19 4Z" fill="#0065FF"/>
</svg>

<svg width="24" height="24" fill="none" xmlns="http://www.w3.org/2000/svg"><path fill-rule="evenodd" clip-rule="evenodd" d="M6 3a1 1 0 011 1v1a2 2 0 012 2v3a2 2 0 01-2 2v8a1 1 0 11-2 0v-8a2 2 0 01-2-2V7a2 2 0 012-2V4a1 1 0 011-1zm6 0a1 1 0 011 1v9a2 2 0 012 2v3a2 2 0 01-2 2 1 1 0 11-2 0 2 2 0 01-2-2v-3a2 2 0 012-2V4a1 1 0 011-1zm7 1a1 1 0 10-2 0 2 2 0 00-2 2v4a2 2 0 002 2v8a1 1 0 102 0v-8a2 2 0 002-2V6a2 2 0 00-2-2z" fill="#0065FF"/></svg>
